(Created with emc2b post processor 2015/05/21 13:59)
(tool change to 1 mm Taschen Fraeser)
T3 M06 G43
G17 G90 G21
(Zeichnung 0)
Z32.7
G00 X105.785 Y153.377 S7000 M03
G01 Z-1 F100
G03 X106.973 Y156.245 I-2.868 J2.868
X102.917 Y160.301 I-4.056 J0
X98.861 Y156.245 I0 J-4.056
X102.917 Y152.189 I4.055 J0
X105.785 Y153.377 I0 J4.056
G00 Z25
G90 X93.974 Y181.907
Z32.7
G01 Z-1
G03 X95.162 Y184.775 I-2.868 J2.868
X91.106 Y188.831 I-4.056 J0
X87.05 Y184.775 I0 J-4.056
X91.106 Y180.719 I4.056 J0
X93.974 Y181.907 I0 J4.056
G00 Z25
G90 X93.974 Y158.285
Z32.7
G01 Z-1
G03 X95.162 Y161.153 I-2.868 J2.868
X91.106 Y165.209 I-4.056 J0
X87.05 Y161.153 I0 J-4.056
X91.106 Y157.097 I4.056 J0
X93.974 Y158.285 I0 J4.056
G00 Z25
G90 X117.596 Y164.021
Z32.7
G01 Z-1
G03 X114.728 Y165.209 I-2.868 J-2.868
X110.672 Y161.153 I0 J-4.056
X114.728 Y157.097 I4.056 J0
X118.784 Y161.153 I0 J4.056
X117.596 Y164.021 I-4.056 J0
G00 Z25
G90 X89.17 Y170.096
Z32.7
G01 Z-1
G03 X90.357 Y172.964 I-2.868 J2.868
X86.301 Y177.02 I-4.056 J0
X82.245 Y172.964 I0 J-4.056
X86.301 Y168.908 I4.056 J0
X89.17 Y170.096 I0 J4.056
G00 Z25
G90 X105.785 Y187.295
Z32.7
G01 Z-1
G03 X106.973 Y190.163 I-2.868 J2.868
X102.917 Y194.219 I-4.056 J0
X98.861 Y190.163 I0 J-4.056
X102.917 Y186.107 I4.055 J0
X105.785 Y187.295 I0 J4.056
G00 Z25
G90 X117.596 Y187.643
Z32.7
G01 Z-1
G03 X114.728 Y188.831 I-2.868 J-2.868
X110.672 Y184.775 I0 J-4.056
X114.728 Y180.719 I4.056 J0
X118.784 Y184.775 I0 J4.056
X117.596 Y187.643 I-4.056 J0
G00 Z25
G90 X122.882 Y170.096
Z32.7
G01 Z-1
G03 X124.07 Y172.964 I-2.868 J2.868
X120.014 Y177.02 I-4.056 J0
X115.958 Y172.964 I0 J-4.056
X120.014 Y168.908 I4.056 J0
X122.882 Y170.096 I0 J4.056
G00 Z25
T0 M06 M02
