(Created with emc2b post processor 2015/05/21 15:11)
(tool change to 1 mm Taschen Fraeser)
T1 M06 G43
G17 G90 G21
(Zeichnung 0)
Z32.7
G00 X108.575 Y150.535 S7000 M03
G01 Z-1 F100
G03 X120.836 Y153.862 I0.588 J22.082
X120.939 Y154.626 I-0.264 J0.424
G01 X113.811 Y162.357
G03 X113.256 Y162.482 I-0.367 J-0.338
G02 X104.537 Y162.714 I-4.092 J10.134
G03 X103.976 Y162.619 I-0.211 J-0.452
G01 X96.446 Y155.279
G03 X96.508 Y154.511 I0.349 J-0.358
X108.575 Y150.535 I12.655 J18.105
G00 Z25
G90
(Zeichnung 0)
X131.246 Y172.028 S7000 M03
Z32.7
G01 Z-1
G03 X127.587 Y184.805 I-22.082 J0.588
X126.821 Y184.887 I-0.417 J-0.275
G01 X119.29 Y177.547
G03 X119.181 Y176.989 I0.349 J-0.358
G02 X118.934 Y167.717 I-10.017 J-4.372
G03 X119.013 Y167.154 I0.446 J-0.224
G01 X126.142 Y159.423
G03 X126.911 Y159.464 I0.367 J0.338
X131.246 Y172.028 I-17.747 J13.152
G00 Z25
G90
(Zeichnung 0)
X114.723 Y182.429 S7000 M03
Z32.7
G01 Z-1
G01 X122.256 Y189.683
G03 X122.205 Y190.446 I-0.346 J0.36
X97.491 Y191.371 I-13.041 J-17.829
X97.388 Y190.608 I0.264 J-0.424
G01 X104.516 Y182.876
G03 X105.071 Y182.752 I0.367 J0.338
G02 X114.23 Y182.301 I4.092 J-10.134
G00 Z25
G90
(Zeichnung 0)
X87.076 Y172.969  S7000 M03
Z32.7
G01 Z-1
G03 X91.006 Y160.036 I22.087 J-0.351
X91.762 Y159.959 I0.41 J0.284
G01 X99.291 Y167.131
G03 X99.393 Y167.717 I-0.344 J0.362
G02 X99.393 Y177.516 I9.77 J4.899
G03 X99.314 Y178.08 I-0.446 J0.224
G01 X92.185 Y185.811
G03 X91.416 Y185.77 I-0.367 J-0.338
X87.076 Y172.969 I17.747 J-13.152
G00 Z25
T0 M06 M02
